(Exported by FreeCAD)
(Post Processor: linuxcnc_post)
(Output Time:2026-02-24 15:26:58.542373)
(begin preamble)
G17 G54 G40 G49 G80 G90
G21
(begin operation: Fixture)
(machine units: mm/min)
G54 
(finish operation: Fixture)
(begin operation: 3mm Endmill001)
(machine units: mm/min)
(3mm Endmill001) 
M5
M6 T2 
G43 H2 
M3 S24000 
(finish operation: 3mm Endmill001)
(begin operation: Pocket_Shape004)
(machine units: mm/min)
(Pocket_Shape004) 
G0 Z6.000 
G0 
G0 X10.917 Y8.227 
G0 X10.917 Y8.227 Z4.000 
G1 X10.917 Y8.227 Z-2.000 F500.000 
G3 X10.773 Y7.917 Z-2.000 I0.083 J-0.227 F1200.000 
G3 X11.083 Y7.773 Z-2.000 I0.227 J0.083 F1200.000 
G3 X10.917 Y8.227 Z-2.000 I-0.083 J0.227 F1200.000 
G0 Z6.000 
G0 X10.660 Y8.934 Z6.000 
G0 X10.660 Y8.934 Z4.000 
G1 X10.660 Y8.934 Z-2.000 F500.000 
G3 X11.340 Y7.066 Z-2.000 I0.340 J-0.934 F1200.000 
G3 X11.934 Y8.340 Z-2.000 I-0.340 J0.934 F1200.000 
G3 X10.660 Y8.934 Z-2.000 I-0.934 J-0.340 F1200.000 
G0 Z6.000 
G0 X10.917 Y8.227 Z6.000 
G0 X10.917 Y8.227 Z4.000 
G1 X10.917 Y8.227 Z-5.000 F500.000 
G3 X10.773 Y7.917 Z-5.000 I0.083 J-0.227 F1200.000 
G3 X11.083 Y7.773 Z-5.000 I0.227 J0.083 F1200.000 
G3 X10.917 Y8.227 Z-5.000 I-0.083 J0.227 F1200.000 
G0 Z6.000 
G0 X10.660 Y8.934 Z6.000 
G0 X10.660 Y8.934 Z4.000 
G1 X10.660 Y8.934 Z-5.000 F500.000 
G3 X11.340 Y7.066 Z-5.000 I0.340 J-0.934 F1200.000 
G3 X11.934 Y8.340 Z-5.000 I-0.340 J0.934 F1200.000 
G3 X10.660 Y8.934 Z-5.000 I-0.934 J-0.340 F1200.000 
G0 Z6.000 
G0 Z6.000 
G0 
G0 X54.417 Y40.227 
G0 X54.417 Y40.227 Z4.000 
G1 X54.417 Y40.227 Z-2.000 F500.000 
G3 X54.273 Y39.917 Z-2.000 I0.083 J-0.227 F1200.000 
G3 X54.583 Y39.773 Z-2.000 I0.227 J0.083 F1200.000 
G3 X54.417 Y40.227 Z-2.000 I-0.083 J0.227 F1200.000 
G0 Z6.000 
G0 X54.160 Y40.934 Z6.000 
G0 X54.160 Y40.934 Z4.000 
G1 X54.160 Y40.934 Z-2.000 F500.000 
G3 X54.840 Y39.066 Z-2.000 I0.340 J-0.934 F1200.000 
G3 X55.434 Y40.340 Z-2.000 I-0.340 J0.934 F1200.000 
G3 X54.160 Y40.934 Z-2.000 I-0.934 J-0.340 F1200.000 
G0 Z6.000 
G0 X54.417 Y40.227 Z6.000 
G0 X54.417 Y40.227 Z4.000 
G1 X54.417 Y40.227 Z-5.000 F500.000 
G3 X54.273 Y39.917 Z-5.000 I0.083 J-0.227 F1200.000 
G3 X54.583 Y39.773 Z-5.000 I0.227 J0.083 F1200.000 
G3 X54.417 Y40.227 Z-5.000 I-0.083 J0.227 F1200.000 
G0 Z6.000 
G0 X54.160 Y40.934 Z6.000 
G0 X54.160 Y40.934 Z4.000 
G1 X54.160 Y40.934 Z-5.000 F500.000 
G3 X54.840 Y39.066 Z-5.000 I0.340 J-0.934 F1200.000 
G3 X55.434 Y40.340 Z-5.000 I-0.340 J0.934 F1200.000 
G3 X54.160 Y40.934 Z-5.000 I-0.934 J-0.340 F1200.000 
G0 Z6.000 
G0 Z6.000 
G0 
G0 X10.917 Y72.227 
G0 X10.917 Y72.227 Z4.000 
G1 X10.917 Y72.227 Z-2.000 F500.000 
G3 X11.083 Y71.773 Z-2.000 I0.083 J-0.227 F1200.000 
G3 X10.917 Y72.227 Z-2.000 I-0.083 J0.227 F1200.000 
G0 Z6.000 
G0 X10.660 Y72.934 Z6.000 
G0 X10.660 Y72.934 Z4.000 
G1 X10.660 Y72.934 Z-2.000 F500.000 
G3 X11.340 Y71.066 Z-2.000 I0.340 J-0.934 F1200.000 
G3 X10.660 Y72.934 Z-2.000 I-0.340 J0.934 F1200.000 
G0 Z6.000 
G0 X10.917 Y72.227 Z6.000 
G0 X10.917 Y72.227 Z4.000 
G1 X10.917 Y72.227 Z-5.000 F500.000 
G3 X11.083 Y71.773 Z-5.000 I0.083 J-0.227 F1200.000 
G3 X11.227 Y72.083 Z-5.000 I-0.083 J0.227 F1200.000 
G3 X10.917 Y72.227 Z-5.000 I-0.227 J-0.083 F1200.000 
G0 Z6.000 
G0 X10.660 Y72.934 Z6.000 
G0 X10.660 Y72.934 Z4.000 
G1 X10.660 Y72.934 Z-5.000 F500.000 
G3 X11.340 Y71.066 Z-5.000 I0.340 J-0.934 F1200.000 
G3 X11.934 Y72.340 Z-5.000 I-0.340 J0.934 F1200.000 
G3 X10.660 Y72.934 Z-5.000 I-0.934 J-0.340 F1200.000 
G0 Z6.000 
G0 Z6.000 
G0 
G0 X97.917 Y72.227 
G0 X97.917 Y72.227 Z4.000 
G1 X97.917 Y72.227 Z-2.000 F500.000 
G3 X98.083 Y71.773 Z-2.000 I0.083 J-0.227 F1200.000 
G3 X98.227 Y72.083 Z-2.000 I-0.083 J0.227 F1200.000 
G3 X97.917 Y72.227 Z-2.000 I-0.227 J-0.083 F1200.000 
G0 Z6.000 
G0 X97.660 Y72.934 Z6.000 
G0 X97.660 Y72.934 Z4.000 
G1 X97.660 Y72.934 Z-2.000 F500.000 
G3 X97.066 Y71.660 Z-2.000 I0.340 J-0.934 F1200.000 
G3 X98.340 Y71.066 Z-2.000 I0.934 J0.340 F1200.000 
G3 X97.660 Y72.934 Z-2.000 I-0.340 J0.934 F1200.000 
G0 Z6.000 
G0 X97.917 Y72.227 Z6.000 
G0 X97.917 Y72.227 Z4.000 
G1 X97.917 Y72.227 Z-5.000 F500.000 
G3 X98.083 Y71.773 Z-5.000 I0.083 J-0.227 F1200.000 
G3 X97.917 Y72.227 Z-5.000 I-0.083 J0.227 F1200.000 
G0 Z6.000 
G0 X97.660 Y72.934 Z6.000 
G0 X97.660 Y72.934 Z4.000 
G1 X97.660 Y72.934 Z-5.000 F500.000 
G3 X98.340 Y71.066 Z-5.000 I0.340 J-0.934 F1200.000 
G3 X97.660 Y72.934 Z-5.000 I-0.340 J0.934 F1200.000 
G0 Z6.000 
G0 Z6.000 
G0 
G0 X97.917 Y8.227 
G0 X97.917 Y8.227 Z4.000 
G1 X97.917 Y8.227 Z-2.000 F500.000 
G3 X97.773 Y7.917 Z-2.000 I0.083 J-0.227 F1200.000 
G3 X98.083 Y7.773 Z-2.000 I0.227 J0.083 F1200.000 
G3 X97.917 Y8.227 Z-2.000 I-0.083 J0.227 F1200.000 
G0 Z6.000 
G0 X97.660 Y8.934 Z6.000 
G0 X97.660 Y8.934 Z4.000 
G1 X97.660 Y8.934 Z-2.000 F500.000 
G3 X98.340 Y7.066 Z-2.000 I0.340 J-0.934 F1200.000 
G3 X98.934 Y8.340 Z-2.000 I-0.340 J0.934 F1200.000 
G3 X97.660 Y8.934 Z-2.000 I-0.934 J-0.340 F1200.000 
G0 Z6.000 
G0 X97.917 Y8.227 Z6.000 
G0 X97.917 Y8.227 Z4.000 
G1 X97.917 Y8.227 Z-5.000 F500.000 
G3 X97.773 Y7.917 Z-5.000 I0.083 J-0.227 F1200.000 
G3 X98.083 Y7.773 Z-5.000 I0.227 J0.083 F1200.000 
G3 X97.917 Y8.227 Z-5.000 I-0.083 J0.227 F1200.000 
G0 Z6.000 
G0 X97.660 Y8.934 Z6.000 
G0 X97.660 Y8.934 Z4.000 
G1 X97.660 Y8.934 Z-5.000 F500.000 
G3 X98.340 Y7.066 Z-5.000 I0.340 J-0.934 F1200.000 
G3 X98.934 Y8.340 Z-5.000 I-0.340 J0.934 F1200.000 
G3 X97.660 Y8.934 Z-5.000 I-0.934 J-0.340 F1200.000 
G0 Z6.000 
G0 Z6.000 
(finish operation: Pocket_Shape004)
(begin operation: Profile)
(machine units: mm/min)
(Profile) 
(Compensated Tool Path. Diameter: 3.0) 
G0 Z6.000 
G0 X110.061 Y81.061 
G0 Z4.000 
G1 X110.061 Y81.061 Z-2.000 F500.000 
G2 X110.500 Y80.000 Z-2.000 I-1.061 J-1.061 F1200.000 
G1 X110.500 Y0.000 Z-2.000 F1200.000 
G2 X109.000 Y-1.500 Z-2.000 I-1.500 J0.000 F1200.000 
G1 X0.000 Y-1.500 Z-2.000 F1200.000 
G2 X-1.500 Y0.000 Z-2.000 I0.000 J1.500 F1200.000 
G1 X-1.500 Y80.000 Z-2.000 F1200.000 
G2 X0.000 Y81.500 Z-2.000 I1.500 J-0.000 F1200.000 
G1 X109.000 Y81.500 Z-2.000 F1200.000 
G2 X110.061 Y81.061 Z-2.000 I-0.000 J-1.500 F1200.000 
G1 X110.061 Y81.061 Z-5.000 F500.000 
G2 X110.500 Y80.000 Z-5.000 I-1.061 J-1.061 F1200.000 
G1 X110.500 Y0.000 Z-5.000 F1200.000 
G2 X109.000 Y-1.500 Z-5.000 I-1.500 J0.000 F1200.000 
G1 X0.000 Y-1.500 Z-5.000 F1200.000 
G2 X-1.500 Y0.000 Z-5.000 I0.000 J1.500 F1200.000 
G1 X-1.500 Y80.000 Z-5.000 F1200.000 
G2 X0.000 Y81.500 Z-5.000 I1.500 J-0.000 F1200.000 
G1 X109.000 Y81.500 Z-5.000 F1200.000 
G2 X110.061 Y81.061 Z-5.000 I-0.000 J-1.500 F1200.000 
G1 X110.061 Y81.061 Z-8.000 F500.000 
G2 X110.500 Y80.000 Z-8.000 I-1.061 J-1.061 F1200.000 
G1 X110.500 Y0.000 Z-8.000 F1200.000 
G2 X109.000 Y-1.500 Z-8.000 I-1.500 J0.000 F1200.000 
G1 X0.000 Y-1.500 Z-8.000 F1200.000 
G2 X-1.500 Y0.000 Z-8.000 I0.000 J1.500 F1200.000 
G1 X-1.500 Y80.000 Z-8.000 F1200.000 
G2 X0.000 Y81.500 Z-8.000 I1.500 J-0.000 F1200.000 
G1 X109.000 Y81.500 Z-8.000 F1200.000 
G2 X110.061 Y81.061 Z-8.000 I-0.000 J-1.500 F1200.000 
G1 X110.061 Y81.061 Z-11.000 F500.000 
G2 X110.500 Y80.000 Z-11.000 I-1.061 J-1.061 F1200.000 
G1 X110.500 Y0.000 Z-11.000 F1200.000 
G2 X109.000 Y-1.500 Z-11.000 I-1.500 J0.000 F1200.000 
G1 X0.000 Y-1.500 Z-11.000 F1200.000 
G2 X-1.500 Y0.000 Z-11.000 I0.000 J1.500 F1200.000 
G1 X-1.500 Y80.000 Z-11.000 F1200.000 
G2 X0.000 Y81.500 Z-11.000 I1.500 J-0.000 F1200.000 
G1 X109.000 Y81.500 Z-11.000 F1200.000 
G2 X110.061 Y81.061 Z-11.000 I-0.000 J-1.500 F1200.000 
G1 X110.061 Y81.061 Z-14.000 F500.000 
G2 X110.500 Y80.000 Z-14.000 I-1.061 J-1.061 F1200.000 
G1 X110.500 Y0.000 Z-14.000 F1200.000 
G2 X109.000 Y-1.500 Z-14.000 I-1.500 J0.000 F1200.000 
G1 X0.000 Y-1.500 Z-14.000 F1200.000 
G2 X-1.500 Y0.000 Z-14.000 I0.000 J1.500 F1200.000 
G1 X-1.500 Y80.000 Z-14.000 F1200.000 
G2 X0.000 Y81.500 Z-14.000 I1.500 J-0.000 F1200.000 
G1 X109.000 Y81.500 Z-14.000 F1200.000 
G2 X110.061 Y81.061 Z-14.000 I-0.000 J-1.500 F1200.000 
G1 X110.061 Y81.061 Z-17.000 F500.000 
G2 X110.500 Y80.000 Z-17.000 I-1.061 J-1.061 F1200.000 
G1 X110.500 Y0.000 Z-17.000 F1200.000 
G2 X109.000 Y-1.500 Z-17.000 I-1.500 J0.000 F1200.000 
G1 X0.000 Y-1.500 Z-17.000 F1200.000 
G2 X-1.500 Y0.000 Z-17.000 I0.000 J1.500 F1200.000 
G1 X-1.500 Y80.000 Z-17.000 F1200.000 
G2 X0.000 Y81.500 Z-17.000 I1.500 J-0.000 F1200.000 
G1 X109.000 Y81.500 Z-17.000 F1200.000 
G2 X110.061 Y81.061 Z-17.000 I-0.000 J-1.500 F1200.000 
G1 X110.061 Y81.061 Z-20.000 F500.000 
G2 X110.500 Y80.000 Z-20.000 I-1.061 J-1.061 F1200.000 
G1 X110.500 Y0.000 Z-20.000 F1200.000 
G2 X109.000 Y-1.500 Z-20.000 I-1.500 J0.000 F1200.000 
G1 X0.000 Y-1.500 Z-20.000 F1200.000 
G2 X-1.500 Y0.000 Z-20.000 I0.000 J1.500 F1200.000 
G1 X-1.500 Y80.000 Z-20.000 F1200.000 
G2 X0.000 Y81.500 Z-20.000 I1.500 J-0.000 F1200.000 
G1 X109.000 Y81.500 Z-20.000 F1200.000 
G2 X110.061 Y81.061 Z-20.000 I-0.000 J-1.500 F1200.000 
G1 X110.061 Y81.061 Z-21.000 F500.000 
G2 X110.500 Y80.000 Z-21.000 I-1.061 J-1.061 F1200.000 
G1 X110.500 Y0.000 Z-21.000 F1200.000 
G2 X109.000 Y-1.500 Z-21.000 I-1.500 J0.000 F1200.000 
G1 X0.000 Y-1.500 Z-21.000 F1200.000 
G2 X-1.500 Y0.000 Z-21.000 I0.000 J1.500 F1200.000 
G1 X-1.500 Y80.000 Z-21.000 F1200.000 
G2 X0.000 Y81.500 Z-21.000 I1.500 J-0.000 F1200.000 
G1 X109.000 Y81.500 Z-21.000 F1200.000 
G2 X110.061 Y81.061 Z-21.000 I-0.000 J-1.500 F1200.000 
G0 Z6.000 
G0 Z6.000 
(finish operation: Profile)
(begin postamble)
M05
G17 G54 G90 G80 G40
M2
